X: 713
T: Zuo ying
%%abc-version 2.0
%%abcx-abcm2ps-target-version 5.9.1 (29 Sep 2008)
%%abc-creator hum2abc beta
%%abcx-conversion-date 2013/10/02 07:52:30
%%abc-edited-by Helmut Schaffrath
%%humdrum-veritas 1758234793
%%humdrum-veritas-data 197409342
%%continueall 1
%%barnumbers 0
L: 1/8
M: 2/4
K: D
ee2f [I:setbarnb 1]| 
e d B A | 
B d e e | 
A4 | 
B A B e | 
d BA2 | 
G A d F | 
E4 |]  



